X:239
T:Polon\"as fr{\aa}n Sexdrega
R:sl\"angpolska
H:Finns \"aven i Ma 6 efter Petter Dufva, Verkeb\"ack, Sm{\aa}land, samt
H:i M 189 (\"Osterg\"otland), M 19 (S\"ormland), Ma 17 (N\"arke) samt
H:fler gamla notb\"ocker, vilket visar hur spridda dessa l{\aa}tar var.
A:V\"asterg\"otland, Sexdrega
Z:id:hn-sp-239
M:3/4
L:1/16
K:A
e2ae c2c2 c4 | A2cA E2E2 E4 | E2AE A2cA B4 | E2BE B2dB c4 |
e2ag agfe dcBA | cBAG A4 A4 :|
|: c2cA c2cA cedc | B2BG B2BG BdcB | A2AF A2AF AcBA | GABG E4 E4 |
F2FE F2Ac d4 | E2ED E2AB c4 | ABAG A2B2 dcBA | cBAG A4 A4 :|

